X:101
T:Le jupon rouge 
T:- from Aird's select Vol.3.No 486
N:^as per MS
T:John Malchair's Third Collection of Tunes
%%VWML:Malchair-3619-p101
F:https://www.vwml.org/record/Malchair/3619/p101
F:www.vwml.org/topics/historic-dance-and-tune-books/Malchair
Z:Peter Kanssen March 2020
M:6/8
L:1/8
K:G
d2 | d2g BAG | A2A A2B | c2B A>GA | G3 DGB | 
d2g BAG | A2A A2B | c2B AGA | G3 G2 ||
d | dgb bag | afd d2d | dab c'ba | d'bg g2d |
e2e c'af | gd'b g2d | e2d c'2b | b3 a2d | 
d2g BAG | A2A A2B | c2B A>GA | G3 DGB | 
d2g BAG | A2A A2B | c2B AGA | G3 G2 ||
b/d'/ | d'bg gab | c'af fga | gab abg | 
f2d d2b/c'/ | d'bg gab | c'af fga | gab abg | 
d'3 Hd'2d | d2g BAG | A2A A2B | c2B A>GA |
G3 DGB | d2g BAG | A2A A2B | c2B AGA | G3G2 ||
